X:531
T:53. Dan/The Wombat
T:Dan
O:Pyewackett
M:2/4
L:1/8
K:D
P:A
D2 G2|A/B/ G A2| G2 F/E/ G|F2 D2|E4::
P:B
EE G2|F/E/E A2|G/F/G E(D|D) C D2 :|
